icons/proxmox-light.svg

<svg width="256" height="256" viewBox="0 0 256 256" fill="none" xmlns="http://www.w3.org/2000/svg">
<rect width="256" height="256" rx="60" fill="#F4F2ED" />
<path d="M175.298 127.562L223.528 180.563C218.228 186.04 210.808 189.398 202.679 189.398C194.023 189.398 186.427 185.687 181.127 179.857L154.45 150.531L133.602 127.562L154.45 104.771L181.127 75.4432C186.427 69.6144 194.023 65.9022 202.679 65.9022C210.808 65.9022 218.228 69.2592 223.528 74.5597L175.298 127.562Z" fill="#E57000"/>
<path d="M81.2305 127.561L33 180.563C38.3003 186.039 45.7203 189.397 53.8491 189.397C62.505 189.397 70.1012 185.687 75.4017 179.856L102.078 150.53L122.926 127.561L102.078 104.77L75.4017 75.4424C70.1012 69.6135 62.505 65.9016 53.8491 65.9016C45.7203 65.9016 38.3003 69.2584 33 74.5589L81.2305 127.561Z" fill="#E57000"/>
<path d="M147.269 153.841L128.24 132.877L109.211 153.841L65.1885 202.219C70.0259 207.057 76.8002 210.121 84.2153 210.121C92.1175 210.121 98.7303 206.895 103.728 201.413L128.24 174.644L152.588 201.413C157.427 206.732 164.36 210.121 172.261 210.121C179.68 210.121 186.453 207.057 191.29 202.219L147.269 153.841Z" fill="black"/>
<path d="M147.267 101.279L128.239 122.243L109.21 101.279L65.187 52.9015C70.0245 48.0639 76.7989 45 84.214 45C92.1162 45 98.7288 48.226 103.727 53.7079L128.239 80.4763L152.587 53.7079C157.425 48.3881 164.358 45 172.259 45C179.678 45 186.451 48.0639 191.289 52.9015L147.267 101.279Z" fill="black"/>
</svg>

<svg xmlns="http://www.w3.org/2000/svg" width="256" height="256" fill="none"><rect width="256" height="256" fill="#F4F2ED" rx="60"/><path fill="#E57000" d="m175.298 127.562 48.23 53.001a28.95 28.95 0 0 1-20.849 8.835c-8.656 0-16.252-3.711-21.552-9.541l-26.677-29.326-20.848-22.969 20.848-22.791 26.677-29.328c5.3-5.829 12.896-9.54 21.552-9.54 8.129 0 15.549 3.356 20.849 8.657zm-94.068-.001L33 180.563a28.96 28.96 0 0 0 20.85 8.834c8.655 0 16.251-3.71 21.552-9.541l26.676-29.326 20.848-22.969-20.848-22.791-26.676-29.328c-5.3-5.828-12.897-9.54-21.553-9.54-8.129 0-15.549 3.356-20.849 8.657z"/><path fill="#000" d="m147.269 153.841-19.029-20.964-19.029 20.964-44.022 48.378c4.837 4.838 11.611 7.902 19.026 7.902 7.903 0 14.515-3.226 19.513-8.708l24.512-26.769 24.348 26.769c4.839 5.319 11.772 8.708 19.673 8.708 7.419 0 14.192-3.064 19.029-7.902zm-.002-52.562-19.028 20.964-19.029-20.964-44.023-48.377C70.025 48.064 76.799 45 84.214 45c7.902 0 14.515 3.226 19.513 8.708l24.512 26.768 24.348-26.768c4.838-5.32 11.771-8.708 19.672-8.708 7.419 0 14.192 3.064 19.03 7.901z"/></svg>
